src/assets/images/icons/youtube.svg

<svg width="24" height="24" viewBox="0 0 24 24" fill="none" xmlns="http://www.w3.org/2000/svg">
<path d="M22.54 6.42C22.4212 5.94541 22.1793 5.51057 21.8387 5.15941C21.498 4.80824 21.0708 4.55318 20.6 4.42C18.88 4 12 4 12 4C12 4 5.12 4 3.4 4.46C2.92925 4.59318 2.50198 4.84824 2.16135 5.19941C1.82072 5.55057 1.57879 5.98541 1.46 6.46C1.14521 8.20556 0.991235 9.97631 0.999999 11.75C0.988779 13.537 1.14277 15.3213 1.46 17.08C1.59096 17.5398 1.83831 17.9581 2.17814 18.2945C2.51798 18.6308 2.93882 18.8738 3.4 19C5.12 19.46 12 19.46 12 19.46C12 19.46 18.88 19.46 20.6 19C21.0708 18.8668 21.498 18.6118 21.8387 18.2606C22.1793 17.9094 22.4212 17.4746 22.54 17C22.8524 15.2676 23.0063 13.5103 23 11.75C23.0112 9.96295 22.8572 8.1787 22.54 6.42Z" stroke="#181D27" stroke-width="2" stroke-linecap="round" stroke-linejoin="round"/>
<path d="M9.75 15.02L15.5 11.75L9.75 8.48V15.02Z" stroke="#181D27" stroke-width="2" stroke-linecap="round" stroke-linejoin="round"/>
</svg>

<svg xmlns="http://www.w3.org/2000/svg" fill="none" viewBox="0 0 24 24"><path stroke="#181D27" stroke-linecap="round" stroke-linejoin="round" stroke-width="2" d="M22.54 6.42a2.78 2.78 0 0 0-1.94-2C18.88 4 12 4 12 4s-6.88 0-8.6.46a2.78 2.78 0 0 0-1.94 2A29 29 0 0 0 1 11.75a29 29 0 0 0 .46 5.33A2.78 2.78 0 0 0 3.4 19c1.72.46 8.6.46 8.6.46s6.88 0 8.6-.46a2.78 2.78 0 0 0 1.94-2c.312-1.732.466-3.49.46-5.25a29 29 0 0 0-.46-5.33"/><path stroke="#181D27" stroke-linecap="round" stroke-linejoin="round" stroke-width="2" d="m9.75 15.02 5.75-3.27-5.75-3.27z"/></svg>
